X: 41021
T: Trip To Ireland, The
R: reel
M: 4/4
K: Eminor
|:E F/G A !slide!B4|ef/e/de zBef|{a/}g f/ga {a/}fedB|{a/}edBA B E F/E/D|
E/D/E/F/ GA Bgfd|ef/e/de zBef|{a/}g f/ga {a/}fedB|{a/}edBA B E F/E/D:|
|:E{A/}EBED!slide!B{c/}AG|AB/A/GA z2GA|B2 e2{a/}e3 !slide!f|d2 Bd e3e|
{a/}edef dBAG|AB/A/GA zEGA|B2 AG {c/}AGE{A/}E|E{A/}EDE {A/}E2z2:|

